shader_type spatial;
render_mode unshaded, cull_front;

uniform vec4 outline_color : source_color = vec4(0.05, 0.05, 0.08, 1.0);
uniform float outline_width : hint_range(0.0, 0.1) = 0.025;

void vertex() {
	VERTEX += NORMAL * outline_width;
}

void fragment() {
	ALBEDO = outline_color.rgb;
}
